src/gnome-shell/assets/activities/activities-debian.svg

<?xml version="1.0" encoding="UTF-8" standalone="no"?>
<!-- Created with Inkscape (http://www.inkscape.org/) -->

<svg
   xmlns:osb="http://www.openswatchbook.org/uri/2009/osb"
   xmlns:dc="http://purl.org/dc/elements/1.1/"
   xmlns:cc="http://creativecommons.org/ns#"
   xmlns:rdf="http://www.w3.org/1999/02/22-rdf-syntax-ns#"
   xmlns:svg="http://www.w3.org/2000/svg"
   xmlns="http://www.w3.org/2000/svg"
   xmlns:sodipodi="http://sodipodi.sourceforge.net/DTD/sodipodi-0.dtd"
   xmlns:inkscape="http://www.inkscape.org/namespaces/inkscape"
   inkscape:export-ydpi="90.000000"
   inkscape:export-xdpi="90.000000"
   width="24"
   height="24"
   id="svg11300"
   sodipodi:version="0.32"
   inkscape:version="0.92.4 (5da689c313, 2019-01-14)"
   sodipodi:docname="activities-debian.svg"
   inkscape:output_extension="org.inkscape.output.svg.inkscape"
   version="1.0"
   style="display:inline;enable-background:new">
  <sodipodi:namedview
     stroke="#ef2929"
     fill="#f57900"
     id="base"
     pagecolor="#bebebe"
     bordercolor="#525252"
     borderopacity="1"
     inkscape:pageopacity="1"
     inkscape:pageshadow="2"
     inkscape:zoom="5.6568543"
     inkscape:cx="12.508855"
     inkscape:cy="21.178755"
     inkscape:current-layer="layer1"
     showgrid="true"
     inkscape:grid-bbox="true"
     inkscape:document-units="px"
     inkscape:showpageshadow="true"
     inkscape:window-width="1366"
     inkscape:window-height="710"
     inkscape:window-x="0"
     inkscape:window-y="28"
     width="400px"
     height="300px"
     inkscape:snap-nodes="true"
     inkscape:snap-bbox="true"
     gridtolerance="10000"
     inkscape:object-nodes="true"
     inkscape:snap-grids="true"
     showguides="false"
     inkscape:guide-bbox="true"
     inkscape:window-maximized="1"
     inkscape:bbox-nodes="true"
     inkscape:bbox-paths="false"
     inkscape:snap-bbox-edge-midpoints="false"
     inkscape:snap-bbox-midpoints="false"
     objecttolerance="10000"
     guidetolerance="10000"
     borderlayer="true"
     showborder="true"
     guidecolor="#ff0b00"
     guideopacity="1"
     guidehicolor="#001aff"
     guidehiopacity="0.49803922">
    <inkscape:grid
       type="xygrid"
       id="grid3123"
       empspacing="4"
       visible="true"
       enabled="true"
       snapvisiblegridlinesonly="true" />
    <sodipodi:guide
       position="12,12"
       orientation="1,0"
       id="guide4135"
       inkscape:locked="false" />
  </sodipodi:namedview>
  <defs
     id="defs3">
    <linearGradient
       id="selected_bg_color"
       osb:paint="solid">
      <stop
         style="stop-color:#5294e2;stop-opacity:1;"
         offset="0"
         id="stop4140" />
    </linearGradient>
  </defs>
  <metadata
     id="metadata4">
    <rdf:RDF>
      <cc:Work
         rdf:about="">
        <dc:format>image/svg+xml</dc:format>
        <dc:type
           rdf:resource="http://purl.org/dc/dcmitype/StillImage" />
        <dc:creator>
          <cc:Agent>
            <dc:title />
          </cc:Agent>
        </dc:creator>
        <dc:source />
        <cc:license
           rdf:resource="" />
        <dc:title></dc:title>
        <dc:subject>
          <rdf:Bag />
        </dc:subject>
        <dc:date />
        <dc:rights>
          <cc:Agent>
            <dc:title />
          </cc:Agent>
        </dc:rights>
        <dc:publisher>
          <cc:Agent>
            <dc:title />
          </cc:Agent>
        </dc:publisher>
        <dc:identifier />
        <dc:relation />
        <dc:language />
        <dc:coverage />
        <dc:description />
        <dc:contributor>
          <cc:Agent>
            <dc:title />
          </cc:Agent>
        </dc:contributor>
      </cc:Work>
      <cc:Work
         rdf:about="">
        <dc:format>image/svg+xml</dc:format>
        <dc:type
           rdf:resource="http://purl.org/dc/dcmitype/StillImage" />
      </cc:Work>
    </rdf:RDF>
  </metadata>
  <g
     style="display:inline"
     inkscape:groupmode="layer"
     inkscape:label="Base"
     id="layer1"
     transform="translate(0,-276)">
    <path
       style="fill:#383838;fill-opacity:1;stroke-width:3.77960205;paint-order:stroke markers fill"
       d="M 12 3 A 9 9 0 0 0 3 12 A 9 9 0 0 0 12 21 A 9 9 0 0 0 21 12 A 9 9 0 0 0 12 3 z M 11.853516 6 C 11.755725 6.05385 11.661022 6.0945031 11.570312 6.1582031 C 11.935968 6.0718031 11.918274 6.1960844 12.291016 6.1464844 C 12.160627 6.1662844 12.001834 6.2165281 12.027344 6.2363281 C 12.44544 6.2845281 12.509033 6.1073581 12.894531 6.2363281 L 12.869141 6.1230469 C 13.407705 6.3157969 13.519063 6.2828369 14.101562 6.5917969 C 14.30565 6.6030969 14.327218 6.4670869 14.634766 6.5917969 C 14.690039 6.6881669 14.624077 6.7048806 15.003906 6.9316406 C 15.046424 6.9146406 14.926104 6.8057031 14.833984 6.7207031 C 15.596476 7.1288731 16.427412 7.9999575 16.679688 8.9296875 C 16.443002 8.4945875 16.656419 9.1511875 16.574219 9.1171875 A 5.0667471 5.0667471 0 0 1 16.820312 10 C 16.749448 9.75057 16.596525 9.1500487 16.330078 8.7617188 C 16.307402 9.0125787 15.982997 8.589305 16.160156 9.140625 C 16.294795 9.336245 16.187695 8.9418225 16.353516 9.2890625 C 16.35635 9.4548825 16.418761 9.6185644 16.457031 9.8339844 C 16.398923 9.8240644 16.329629 9.5964563 16.287109 9.6601562 C 16.345218 9.9308463 16.439712 10.070597 16.476562 10.091797 C 16.456723 10.137127 16.41055 10.050125 16.40625 10.234375 C 16.428927 10.658135 16.524963 10.478247 16.570312 10.498047 C 16.523542 10.706387 16.337567 10.951977 16.429688 11.310547 C 16.402755 11.201407 16.35218 11.091741 16.3125 10.988281 C 16.27565 11.294401 16.380008 11.355232 16.238281 11.726562 C 16.340294 11.392082 16.328792 11.090348 16.232422 11.236328 C 16.27494 11.711118 15.856994 12.075063 15.902344 12.376953 L 15.78125 12.208984 C 15.451025 12.685194 15.77471 12.470631 15.550781 12.832031 C 15.632981 12.690251 15.505568 12.774851 15.613281 12.613281 C 15.542417 12.617531 15.295659 12.916057 15.070312 13.091797 C 14.184517 13.800437 13.12874 13.894389 12.105469 13.511719 C 12.065786 13.544319 12.286769 13.717734 12.451172 13.802734 C 12.840922 13.945794 13.281675 13.953653 13.628906 13.939453 C 12.877752 14.254083 11.448169 13.622233 10.980469 12.783203 C 11.086765 12.805883 11.448587 13.372744 11.720703 13.464844 C 11.560552 13.335874 11.436528 13.172556 11.320312 13.003906 A 2.3526714 2.3526714 0 0 0 12.089844 13.591797 C 12.080634 13.556367 12.100331 13.535639 12.105469 13.511719 C 12.110606 13.487799 12.101232 13.462066 12.033203 13.416016 C 11.165833 12.751316 10.651501 12.186513 10.830078 10.876953 C 10.961884 10.777753 10.997485 10.232346 11.300781 10.041016 C 11.485026 9.6328456 12.040392 9.2550938 12.632812 9.2460938 C 13.237988 9.2135037 13.748798 9.5684069 14.003906 9.9042969 C 13.539041 9.4691969 12.773039 9.3384262 12.121094 9.6601562 C 11.454977 9.9606162 11.062451 10.693928 11.119141 11.423828 C 11.143241 11.388358 11.164441 11.411013 11.175781 11.320312 C 11.155939 12.740422 12.706873 13.780249 13.822266 13.255859 L 13.835938 13.287109 C 14.289465 13.163809 14.232552 13.060092 14.527344 12.857422 C 14.504664 12.904192 14.328716 13.027344 14.433594 13.027344 C 14.576739 12.989084 15.026952 12.57342 15.248047 12.375 C 15.350087 12.15674 15.194211 12.256839 15.335938 11.980469 L 15.509766 11.896484 C 15.60614 11.618704 15.711979 11.461279 15.699219 11.136719 L 15.597656 11.349609 C 15.746476 10.898919 15.662344 10.410088 15.683594 9.9863281 L 15.640625 9.9746094 C 15.605193 8.9088194 14.683345 7.7752481 13.861328 7.3925781 C 13.155526 7.0651881 12.068119 7.0106794 11.566406 7.2558594 C 11.634434 7.1949394 11.909792 7.1678938 11.826172 7.1210938 C 11.039586 7.1990437 11.217039 7.3962912 10.613281 7.5507812 C 10.448877 7.7109813 11.096696 7.4219862 10.748047 7.6289062 C 10.424909 7.7181862 10.272007 7.5723194 9.7929688 8.0683594 C 9.8354868 8.1392594 10.098583 7.865675 9.8789062 8.140625 C 9.4282137 8.085345 8.4549686 9.1693069 8.2480469 9.5292969 L 8.3554688 9.5488281 C 8.17831 9.9938481 7.9452405 10.276529 7.9140625 10.542969 C 7.8687095 11.197749 7.6395621 12.390742 7.9570312 12.757812 L 7.9257812 13.064453 C 7.9682996 13.152323 8.0027826 13.240066 8.0566406 13.322266 L 7.9863281 13.328125 C 8.3208042 14.381085 8.3458022 13.347276 8.7851562 14.441406 C 8.7213791 14.420146 8.657458 14.397081 8.5625 14.269531 C 8.5525797 14.367321 8.7006755 14.654986 8.875 14.878906 L 8.7988281 14.964844 C 8.8980369 15.142004 8.9866625 15.179234 9.0546875 15.240234 C 8.6918658 15.041814 9.3927231 15.894776 9.4550781 16.003906 L 9.5097656 15.904297 C 9.5026788 16.046027 9.6133908 16.229265 9.8203125 16.484375 L 9.9921875 16.478516 C 10.063052 16.620246 10.324569 16.873466 10.480469 16.884766 L 10.375 17.021484 C 10.771836 17.146204 10.5691 17.187885 11.056641 17.359375 L 10.957031 17.1875 C 11.206471 17.4015 11.280793 17.589506 11.630859 17.753906 C 12.116983 17.922596 12.182225 17.85827 12.679688 18 C 12.25734 17.98724 11.76221 17.993507 11.427734 17.873047 C 9.1487613 17.256527 7.063732 14.583838 7.2167969 11.830078 C 7.1799489 11.273088 7.2718105 10.57498 7.1796875 10.4375 C 7.3100768 10.01232 7.4603756 9.4954163 7.7636719 8.8789062 C 7.7409956 8.8392263 7.8142669 8.9999381 7.96875 8.7363281 C 8.0622895 8.5308281 8.1382253 8.3038887 8.2558594 8.1054688 L 8.3183594 8.0917969 C 8.3778848 7.7388969 9.1404236 7.1978912 9.3671875 6.9257812 L 9.3828125 7.0292969 C 9.877441 6.5658469 10.759814 6.2543031 11.255859 6.0332031 C 11.125469 6.1777631 11.548803 6.0184 11.853516 6 z "
       transform="translate(0,276)"
       id="circle10" />
  </g>
</svg>

<svg xmlns="http://www.w3.org/2000/svg" width="24" height="24" style="display:inline;enable-background:new" version="1.0"><g style="display:inline"><path d="M12 3a9 9 0 0 0-9 9 9 9 0 0 0 9 9 9 9 0 0 0 9-9 9 9 0 0 0-9-9zm-.146 3c-.098.054-.193.095-.284.158.366-.086.348.038.721-.012-.13.02-.29.07-.264.09.418.049.482-.129.868 0l-.026-.113c.539.193.65.16 1.233.469.204.011.225-.125.533 0 .055.096-.01.113.369.34.042-.017-.078-.126-.17-.211.762.408 1.593 1.279 1.846 2.209-.237-.435-.024.221-.106.187a5.067 5.067 0 0 1 .246.883c-.07-.25-.223-.85-.49-1.238-.023.25-.347-.173-.17.379.135.195.028-.2.194.148.002.166.065.33.103.545-.058-.01-.127-.238-.17-.174.058.27.153.41.19.432-.02.045-.066-.042-.07.142.022.424.118.244.163.264-.046.208-.232.454-.14.813-.027-.11-.078-.22-.117-.323-.037.306.067.367-.075.739.102-.335.09-.637-.006-.49.043.474-.375.838-.33 1.14l-.12-.168c-.331.476-.007.262-.231.623.082-.142-.045-.057.062-.219-.07.005-.317.303-.543.479-.885.708-1.941.802-2.965.42-.04.032.182.206.346.29.39.144.83.152 1.178.137-.751.315-2.18-.317-2.649-1.156.107.023.469.59.74.682a2.11 2.11 0 0 1-.4-.461 2.353 2.353 0 0 0 .77.588c-.01-.036.01-.056.015-.08.006-.024-.004-.05-.072-.096-.867-.665-1.381-1.23-1.203-2.539.132-.1.167-.645.47-.836.185-.408.74-.786 1.333-.795.605-.032 1.116.322 1.37.658-.464-.435-1.23-.566-1.882-.244-.666.3-1.059 1.034-1.002 1.764.024-.036.045-.013.057-.104-.02 1.42 1.53 2.46 2.646 1.936l.014.031c.453-.123.397-.227.691-.43-.022.047-.198.17-.093.17.143-.038.593-.454.814-.652.102-.218-.054-.118.088-.395l.174-.084c.096-.277.202-.435.19-.76l-.102.214c.148-.451.064-.94.086-1.364l-.043-.011c-.036-1.066-.958-2.2-1.78-2.582-.705-.328-1.793-.382-2.295-.137.068-.061.344-.088.26-.135-.786.078-.609.275-1.213.43-.164.16.484-.129.135.078-.323.09-.476-.057-.955.44.042.07.306-.203.086.072-.45-.056-1.424 1.028-1.631 1.388l.107.02c-.177.445-.41.728-.44.994-.046.655-.275 1.848.042 2.215l-.031.306c.042.088.077.176.13.258l-.07.006c.335 1.053.36.02.8 1.113-.065-.02-.129-.044-.223-.171-.01.097.138.385.312.609l-.076.086c.099.177.188.214.256.275-.363-.198.338.655.4.764l.055-.1c-.007.142.103.325.31.58l.172-.005c.071.141.333.394.488.406l-.105.136c.397.125.194.167.682.338l-.1-.172c.25.214.324.403.674.567.486.169.551.104 1.049.246-.423-.013-.918-.006-1.252-.127-2.28-.616-4.364-3.29-4.211-6.043-.037-.557.055-1.255-.037-1.393.13-.425.28-.942.584-1.558-.023-.04.05.12.205-.143.093-.205.17-.432.287-.63l.062-.014c.06-.353.822-.894 1.05-1.166l.015.103c.494-.463 1.377-.775 1.873-.996-.13.145.293-.015.598-.033z" style="fill:#383838;fill-opacity:1;stroke-width:3.77960205;paint-order:stroke markers fill"/></g></svg>
